X:1974
T: First month of Summer, The
O:england
C:Trad
S: The First Month of Spring, John Vesey and Paul Brady
I:speed 250
M:4/4
K:G
GE |: D2 B,D GABG | dG (3GGG AEGE | (3DED B,D GABG | AE (3EEE AEGE |
(3DED B,D GABG | dG (3GGG AEGE | (3DED B,D GABG | AGEF GABc|
dGBd efge | dcBG AGEG | dGBd efge | dBAF G2 (3DEF |
GABd gfge | dB B2 AGEG | gfed (3efg dB | (3ABA GB AEGE:|


